packages/astro-components-stencil/src/icons/phonelink-setup.svg

<svg width="24" height="24" viewBox="0 0 24 24" fill="none" xmlns="http://www.w3.org/2000/svg">
<path fill-rule="evenodd" clip-rule="evenodd" d="M6.99997 3V5C6.99997 5.55 7.44997 6 7.99997 6C8.54997 6 8.99997 5.55 8.99997 5V4H19V20H8.99997V19C8.99997 18.45 8.54997 18 7.99997 18C7.44997 18 6.99997 18.45 6.99997 19V21C6.99997 22.1 7.89997 23 8.99997 23H19C20.1 23 21 22.1 21 21V3C21 1.9 20.1 1 19 1H8.99997C7.89997 1 6.99997 1.9 6.99997 3ZM9.49997 15.5C9.78997 15.38 10.05 15.21 10.3 15.02L10.28 15.05L11.29 15.44C11.52 15.53 11.78 15.44 11.9 15.22L12.74 13.76C12.86 13.55 12.81 13.27 12.62 13.12L11.77 12.44L11.75 12.47C11.755 12.43 11.7606 12.39 11.7662 12.35C11.7831 12.23 11.8 12.11 11.8 11.99C11.8 11.87 11.7831 11.75 11.7662 11.63C11.7606 11.59 11.755 11.55 11.75 11.51L11.77 11.54L12.62 10.86C12.81 10.71 12.86 10.43 12.74 10.22L11.9 8.76C11.78 8.55 11.52 8.45 11.29 8.54L10.28 8.93L10.3 8.96C10.05 8.79 9.78997 8.62 9.49997 8.5L9.32997 7.42C9.29997 7.18 9.08997 7 8.83997 7H7.15997C6.90997 7 6.69997 7.18 6.66997 7.42L6.49997 8.5C6.20997 8.62 5.94997 8.79 5.69997 8.98L5.71997 8.95L4.69997 8.56C4.46997 8.47 4.20997 8.56 4.08997 8.78L3.24997 10.24C3.12997 10.45 3.17997 10.73 3.36997 10.88L4.21997 11.56L4.23997 11.53C4.23554 11.5632 4.23062 11.597 4.22564 11.6311C4.20815 11.7509 4.18997 11.8755 4.18997 12C4.18997 12.12 4.20685 12.24 4.22372 12.36C4.22935 12.4 4.23497 12.44 4.23997 12.48L4.21997 12.45L3.36997 13.13C3.17997 13.28 3.12997 13.56 3.24997 13.77L4.08997 15.23C4.20997 15.44 4.46997 15.54 4.69997 15.45L5.70997 15.06L5.69997 15.02C5.94997 15.21 6.20997 15.38 6.49997 15.5L6.66997 16.57C6.69997 16.82 6.90997 17 7.15997 17H8.83997C9.08997 17 9.29997 16.82 9.32997 16.58L9.49997 15.5ZM7.99997 10C6.89997 10 5.99997 10.9 5.99997 12C5.99997 13.1 6.89997 14 7.99997 14C9.09997 14 9.99997 13.1 9.99997 12C9.99997 10.9 9.09997 10 7.99997 10Z" fill="black"/>
</svg>

<svg xmlns="http://www.w3.org/2000/svg" viewBox="0 0 24 24"><g xmlns="http://www.w3.org/2000/svg" id="phonelink-setup" fill-rule="nonzero">
            <path d="M7 3v2c0 .55.45 1 1 1s1-.45 1-1V4h10v16H9v-1c0-.55-.45-1-1-1s-1 .45-1 1v2c0 1.1.9 2 2 2h10c1.1 0 2-.9 2-2V3c0-1.1-.9-2-2-2H9c-1.1 0-2 .9-2 2zm2.5 12.5c.29-.12.55-.29.8-.48l-.02.03 1.01.39c.23.09.49 0 .61-.22l.84-1.46c.12-.21.07-.49-.12-.64l-.85-.68-.02.03c.02-.16.05-.32.05-.48 0-.16-.03-.32-.05-.48l.02.03.85-.68c.19-.15.24-.43.12-.64l-.84-1.46a.499.499 0 00-.61-.22l-1.01.39.02.03c-.25-.17-.51-.34-.8-.46l-.17-1.08A.488.488 0 008.84 7H7.16c-.25 0-.46.18-.49.42L6.5 8.5c-.29.12-.55.29-.8.48l.02-.03-1.02-.39c-.23-.09-.49 0-.61.22l-.84 1.46c-.12.21-.07.49.12.64l.85.68.02-.03c-.02.15-.05.31-.05.47 0 .16.03.32.05.48l-.02-.03-.85.68c-.19.15-.24.43-.12.64l.84 1.46c.12.21.38.31.61.22l1.01-.39-.01-.04c.25.19.51.36.8.48l.17 1.07c.03.25.24.43.49.43h1.68c.25 0 .46-.18.49-.42l.17-1.08zM6 12c0-1.1.9-2 2-2s2 .9 2 2-.9 2-2 2-2-.9-2-2z"/>
        </g></svg>
